X:4317
T:MODWARK2- Scotch Jig [Mowdiewart]
O:england
S:Oswald's CPC, bk. 4, c 1752
Q:1/4=120
L:1/8
M:6/8
K:Em
g|dBG ABd|e2AA2g|dBG ABd|e2EE2g|dBG ABc|\
BAB GAB|cBA dcB|e2EE2::f|gag gfe|aba agf|\
gfg aga|b2GG2f|gag gfe|aba agf|bag agf|e2EE2:|]


